X:1
T:Title
L:1/4
M:4/4
I:linebreak $
K:G
V:1 treble+8 nm="Voice" snm="Voice"
V:1
|: D G B/A/ G |"F" A/=F/ F F F | B G G G | A/=F/ F F F |$[K:treble] D d d/e/ d/c/ | %5
 B/G/ G G [Fe] ::"G" g g [Ag] a |"C" e/c/ c c f/g/ | a a a/b/ a |$ f/d/ d d [Fe] | g g [Ag] a | %11
 e/c/ c c/A/ B/c/ |"D" d d d/e/ d/c/ | B/G/ G G2 :| %14
